X: 36564
T: Shaddighee
R: barndance
M: 4/4
K: Gmajor
|:G3A B2G2|BcdB G2Bc|d2(3BcB A2F2|ABAF D2(3DEF|
G3A B2G2|BcdB G2Bc|d2(3BcB A2F2|G3A G4:|
|:g2(3fgf e2d2|BcdB G2Bc|d2(3BcB A2F2|ABAF D2 (3def|
g2(3fgf e2d2|BcdB G2Bc|d2(3BcB A2F2|G3A G4:|

